packages/foundations/assets/icons/functional/images/human/cigarette_disabled_32.svg

<svg width="32" height="32" viewBox="0 0 32 32" fill="none" xmlns="http://www.w3.org/2000/svg">
<g clip-path="url(#clip0_185_1110)">
<path fill-rule="evenodd" clip-rule="evenodd" d="M26.3871 4.21265C26.7571 3.88448 27.3466 3.93535 27.7071 4.29584C28.0676 4.65632 28.115 5.26422 27.7903 5.61584L14.414 19.0029H27.2147C27.8284 19.0029 28.3249 19.1091 28.7042 19.3215C29.1229 19.5454 29.4575 19.88 29.6815 20.2987C29.8794 20.6688 30 21.0045 30 22.0034C30 23.0024 29.9077 23.2842 29.6815 23.7072C29.4575 24.1259 29.1229 24.4605 28.7042 24.6844C28.3342 24.8823 27.9506 24.9778 27.4411 24.9985L8.414 25.0029L5.6129 27.7932C5.22999 28.1068 4.65338 28.0705 4.29289 27.7101C3.93241 27.3496 3.89144 26.7427 4.2097 26.39L26.3871 4.21265ZM8.885 19.0029L6.884 21.0039H4.66468C4.47458 21.0092 4.27458 21.0121 4.16565 21.127C4.05672 21.2419 4 21.373 4 21.5828V22.3783C4 22.5387 4.04491 22.7484 4.13429 22.8478C4.22366 22.9471 4.43208 22.995 4.6602 23.0014L4.885 23.0029L3.23754 24.6522C2.90466 24.4624 2.53012 24.1318 2.31854 23.7072C2.10696 23.2825 2 23.0029 2 22.0034C2 21.0039 2.09235 20.7216 2.31854 20.2987C2.54247 19.88 2.87705 19.5454 3.29577 19.3215C3.66584 19.1236 4.04939 19.0281 4.55888 19.0074L8.885 19.0029ZM12.413 21.0039L10.414 23.0029H27.2147C27.488 23.0029 27.6422 22.9865 27.7903 22.8904C27.9384 22.7944 28 22.6212 28 22.3783C28 22.0784 28 21.8133 28 21.5828C28 21.2371 27.8312 21.1226 27.761 21.0851C27.6702 21.0365 27.5679 21.0109 27.3398 21.0045L12.413 21.0039ZM3.65154 5.30659C4.04263 4.91662 4.67579 4.91754 5.06575 5.30862C6.92451 7.17275 6.89926 9.36124 5.0801 11.4737L4.75691 11.8393C3.86871 12.8959 3.83413 13.8432 4.30745 14.7604C4.38743 14.9154 4.5123 15.1015 4.68206 15.3185C5.05998 15.7305 5.05998 16.3469 4.66468 16.7326C4.26939 17.1183 3.63627 17.1105 3.25058 16.7152C3.04229 16.5017 2.77498 16.1521 2.53012 15.6775C1.70046 14.0697 1.78518 12.2424 3.26017 10.5121L3.57441 10.158C4.73291 8.81869 4.72867 7.80308 3.6495 6.7208C3.25954 6.32971 3.26045 5.69655 3.65154 5.30659Z" fill="#1A1C1F"/>
</g>
<defs>
<clipPath id="clip0_185_1110">
<rect width="32" height="32" fill="white"/>
</clipPath>
</defs>
</svg>

<svg xmlns="http://www.w3.org/2000/svg" width="32" height="32" fill="none"><g clip-path="url(#a)"><path fill="#1A1C1F" fill-rule="evenodd" d="M26.387 4.213c.37-.329.96-.278 1.32.083.36.36.408.968.083 1.32L14.414 19.003h12.8q.92 0 1.49.319c.419.223.753.558.977.977.198.37.319.706.319 1.704 0 1-.092 1.281-.319 1.704a2.36 2.36 0 0 1-.977.977c-.37.198-.753.294-1.263.314l-19.027.005-2.801 2.79c-.383.314-.96.277-1.32-.083s-.402-.967-.083-1.32zM8.885 19.003l-2.001 2h-2.22c-.19.006-.39.01-.498.124-.11.115-.166.246-.166.456v.795c0 .16.045.37.134.47s.298.147.526.153l.225.002-1.647 1.65c-.333-.19-.708-.521-.92-.946-.211-.425-.318-.704-.318-1.704s.092-1.281.319-1.704c.223-.419.558-.754.977-.977.37-.198.753-.294 1.263-.315zm3.528 2-1.999 2h16.8c.274 0 .428-.017.576-.113s.21-.269.21-.512v-.795c0-.346-.169-.46-.239-.498-.09-.049-.193-.074-.421-.08zM3.652 5.308a1 1 0 0 1 1.414.002c1.859 1.864 1.833 4.052.014 6.165l-.323.365c-.888 1.057-.923 2.004-.45 2.921q.12.232.375.559c.378.411.378 1.028-.017 1.414a1 1 0 0 1-1.414-.018 4.4 4.4 0 0 1-.72-1.037c-.83-1.608-.746-3.436.73-5.166l.313-.354c1.159-1.34 1.155-2.355.076-3.437a1 1 0 0 1 .002-1.414" clip-rule="evenodd"/></g><defs><clipPath id="a"><path fill="#fff" d="M0 0h32v32H0z"/></clipPath></defs></svg>
